Themes/OneUI/assets/svg/icon_widget_message.svg

<svg width="21" height="21" viewBox="0 0 21 21" fill="none" xmlns="http://www.w3.org/2000/svg">
<g clip-path="url(#clip0_1_4252)">
<path d="M18.4869 2.51328C17.2171 1.31968 15.4836 0.642483 13.5707 0.389183C11.7439 0.147083 10.5 0.206683 10.5 0.206683C10.5 0.206683 9.2559 0.147083 7.429 0.389183C5.5161 0.642483 3.7828 1.31968 2.5133 2.51328C1.3194 3.78298 0.642302 5.51638 0.388902 7.42928C0.146802 9.25598 0.206502 10.5001 0.206502 10.5001C0.206502 10.5001 0.146802 11.7441 0.388902 13.571C0.642302 15.4837 1.3194 17.2173 2.5132 18.4869C3.7828 19.6807 5.5161 20.3578 7.429 20.6113C9.2559 20.8533 10.5 20.7937 10.5 20.7937C10.5 20.7937 11.7439 20.8533 13.5707 20.6113C15.4836 20.3578 17.2171 19.6807 18.4866 18.4869C19.6807 17.2173 20.3577 15.4837 20.6111 13.571C20.8531 11.7441 20.7935 10.5001 20.7935 10.5001C20.7935 10.5001 20.8531 9.25598 20.6111 7.42928C20.3577 5.51638 19.6807 3.78298 18.4869 2.51328Z" fill="#31A5F3"/>
<path d="M8.7188 16.4375L11.4688 14.0625H14.0313C15.0938 14.0625 15.9063 13.25 15.9063 12.1875V7.6875C15.9063 6.625 15.0938 5.8125 14.0313 5.8125H6.8438C5.9063 5.8125 5.0938 6.5625 5.0938 7.5625V12.1875C5.0938 13.25 5.9063 14.0625 6.9688 14.0625H8.2188V16.25C8.2813 16.625 8.4688 16.6875 8.7188 16.4375Z" fill="#FAFAFA"/>
</g>
<defs>
<clipPath id="clip0_1_4252">
<rect width="21" height="21" fill="white"/>
</clipPath>
</defs>
</svg>

<?xml version="1.0" encoding="UTF-8" standalone="no"?>
<svg
   width="20.600002"
   height="20.599995"
   viewBox="0 0 20.600002 20.599995"
   fill="none"
   version="1.1"
   id="svg1004"
   sodipodi:docname="icon_widget_message.svg"
   xmlns:inkscape="http://www.inkscape.org/namespaces/inkscape"
   xmlns:sodipodi="http://sodipodi.sourceforge.net/DTD/sodipodi-0.dtd"
   xmlns="http://www.w3.org/2000/svg"
   xmlns:svg="http://www.w3.org/2000/svg">
  <sodipodi:namedview
     id="namedview1006"
     pagecolor="#ffffff"
     bordercolor="#666666"
     borderopacity="1.0"
     inkscape:showpageshadow="2"
     inkscape:pageopacity="0.0"
     inkscape:pagecheckerboard="0"
     inkscape:deskcolor="#d1d1d1" />
  <g
     clip-path="url(#clip0_1_4252)"
     id="g997"
     transform="translate(-0.19998922,-0.20019572)">
    <path
       d="M 18.4869,2.51328 C 17.2171,1.31968 15.4836,0.642483 13.5707,0.389183 11.7439,0.147083 10.5,0.206683 10.5,0.206683 c 0,0 -1.2441,-0.0596 -3.071,0.1825 -1.9129,0.2533 -3.6462,0.930497 -4.9157,2.124097 -1.1939,1.2697 -1.870998,3.0031 -2.124398,4.916 -0.2421,1.8267 -0.1824,3.07082 -0.1824,3.07082 0,0 -0.0597,1.244 0.1824,3.0709 0.2534,1.9127 0.930498,3.6463 2.124298,4.9159 1.2696,1.1938 3.0029,1.8709 4.9158,2.1244 1.8269,0.242 3.071,0.1824 3.071,0.1824 0,0 1.2439,0.0596 3.0707,-0.1824 1.9129,-0.2535 3.6464,-0.9306 4.9159,-2.1244 1.1941,-1.2696 1.8711,-3.0032 2.1245,-4.9159 0.242,-1.8269 0.1824,-3.0709 0.1824,-3.0709 0,0 0.0596,-1.24412 -0.1824,-3.07082 -0.2534,-1.9129 -0.9304,-3.6463 -2.1242,-4.916 z"
       fill="#31a5f3"
       id="path993" />
    <path
       d="m 8.7188,16.4375 2.75,-2.375 h 2.5625 c 1.0625,0 1.875,-0.8125 1.875,-1.875 v -4.5 c 0,-1.0625 -0.8125,-1.875 -1.875,-1.875 H 6.8438 c -0.9375,0 -1.75,0.75 -1.75,1.75 v 4.625 c 0,1.0625 0.8125,1.875 1.875,1.875 h 1.25 V 16.25 c 0.0625,0.375 0.25,0.4375 0.5,0.1875 z"
       fill="#fafafa"
       id="path995" />
  </g>
  <defs
     id="defs1002">
    <clipPath
       id="clip0_1_4252">
      <rect
         width="21"
         height="21"
         fill="#ffffff"
         id="rect999"
         x="0"
         y="0" />
    </clipPath>
  </defs>
</svg>
